assets/icons/arrow_right.svg

<svg width="25" height="25" viewBox="0 0 25 25" fill="none" xmlns="http://www.w3.org/2000/svg">
<g id="arrow_right">
<path id="iconDefault" fill-rule="evenodd" clip-rule="evenodd" d="M2.70831 12.5C2.70831 12.1548 2.98814 11.875 3.33331 11.875L20.2749 11.875L14.5328 5.41522C14.3035 5.15723 14.3268 4.76219 14.5848 4.53286C14.8427 4.30354 15.2378 4.32678 15.4671 4.58477L22.1338 12.0848C22.3443 12.3216 22.3443 12.6784 22.1338 12.9152L15.4671 20.4152C15.2378 20.6732 14.8427 20.6964 14.5848 20.4671C14.3268 20.2378 14.3035 19.8428 14.5328 19.5848L20.2749 13.125H3.33331C2.98814 13.125 2.70831 12.8452 2.70831 12.5Z" fill="#18303F"/>
</g>
</svg>

<svg width="25" height="25" viewBox="0 0 25 25" fill="none"><g id="arrow_right"><path id="iconDefault" fill-rule="evenodd" clip-rule="evenodd" d="M2.708 12.5c0-.345.28-.625.625-.625h16.942l-5.742-6.46a.625.625 0 0 1 .934-.83l6.667 7.5c.21.237.21.593 0 .83l-6.667 7.5a.625.625 0 0 1-.934-.83l5.742-6.46H3.333a.625.625 0 0 1-.625-.625Z" fill="#18303F"/></g></svg>
